X: 1781
T: Är Du Galen Gutt?
R: barndance
M: 4/4
K: Gmajor
D/ G>A|:B2 G2 G2 A>B|c2 A2 A2 d2|c>B A>G F>G A>B|(3ABA (3GFE D>D G>A|
B2 G2 G2 A>B|c2 A2 A2 d2|c>B A>G F>G A>B|1 G2 B2 G>D G>A:|2 G2 B2 G3 d/d/||
|:d2 d2 d>e f>g|e2 c2 c3d|e3d e>f g>a|f2 d2 d>c B>A|
B2 G2 G2 A>B|c2 A2 A2 d2|c>B A>G F>G A>B|1 G2 B2 G3 d/d/:|2 G2 B2 G>||

